client/media/icons/_01_arrowright1.svg

<?xml version="1.0" encoding="UTF-8" standalone="no"?><!DOCTYPE svg PUBLIC "-//W3C//DTD SVG 1.1//EN" "http://www.w3.org/Graphics/SVG/1.1/DTD/svg11.dtd"><svg width="100%" height="100%" viewBox="0 0 48 48" version="1.1" xmlns="http://www.w3.org/2000/svg" xmlns:xlink="http://www.w3.org/1999/xlink" xml:space="preserve" xmlns:serif="http://www.serif.com/" style="fill-rule:evenodd;clip-rule:evenodd;stroke-linejoin:round;stroke-miterlimit:2;"><path d="M13.109,41.954c-0.711,-0.774 -1.08,-1.651 -1.107,-2.631c-0.028,-0.981 0.341,-1.832 1.107,-2.554l13.456,-12.692l-13.538,-12.769c-0.711,-0.67 -1.053,-1.535 -1.025,-2.592c0.027,-1.058 0.396,-1.922 1.107,-2.593c0.821,-0.774 1.737,-1.148 2.749,-1.122c1.012,0.026 1.9,0.4 2.666,1.122l16.327,15.401c0.383,0.361 0.67,0.761 0.862,1.199c0.191,0.439 0.287,0.89 0.287,1.354c-0,0.465 -0.096,0.916 -0.287,1.355c-0.192,0.438 -0.479,0.838 -0.862,1.199l-16.245,15.323c-0.766,0.722 -1.668,1.07 -2.707,1.045c-1.04,-0.026 -1.969,-0.374 -2.79,-1.045Z" style="fill-rule:nonzero;"/></svg>

<?xml version="1.0" encoding="UTF-8" standalone="no"?>
<!DOCTYPE svg PUBLIC "-//W3C//DTD SVG 1.1//EN" "http://www.w3.org/Graphics/SVG/1.1/DTD/svg11.dtd">
<svg width="100%" height="100%" viewBox="0 0 40 40" version="1.1" xmlns="http://www.w3.org/2000/svg" xmlns:xlink="http://www.w3.org/1999/xlink" xml:space="preserve" xmlns:serif="http://www.serif.com/" style="fill-rule:evenodd;clip-rule:evenodd;stroke-linejoin:round;stroke-miterlimit:2;">
    <g transform="matrix(1.16828,0,0,1.05262,-8.03889,-5.2628)">
        <path d="M13.109,41.954C12.398,41.18 12.029,40.303 12.002,39.323C11.974,38.342 12.343,37.491 13.109,36.769L26.565,24.077L13.027,11.308C12.316,10.638 11.974,9.773 12.002,8.716C12.029,7.658 12.398,6.794 13.109,6.123C13.93,5.349 14.846,4.975 15.858,5.001C16.87,5.027 17.758,5.401 18.524,6.123L34.851,21.524C35.234,21.885 35.521,22.285 35.713,22.723C35.904,23.162 36,23.613 36,24.077C36,24.542 35.904,24.993 35.713,25.432C35.521,25.87 35.234,26.27 34.851,26.631L18.606,41.954C17.84,42.676 16.938,43.024 15.899,42.999C14.859,42.973 13.93,42.625 13.109,41.954Z" style="fill-rule:nonzero;"/>
    </g>
</svg>
